X: 63
T: No_155_I_Went_to_the_Edge_of_the_World.krn
N: Derived from No_155_I_Went_to_the_Edge_of_the_World.krn
%%abc-version 2.0
%%abcx-abcm2ps-target-version 5.9.1 (29 Sep 2008)
%%abc-creator hum2abc beta
%%abcx-conversion-date 2019/03/15 08:37:56
%%humdrum-veritas 3181713091
%%humdrum-veritas-data 4139483695
%%linebreak <none>
%%barnumbers 0
L: 1/8
M: 3/4
K: D clef=bass
[K:clef=bass][M:3/4]F4E2 | 
D2F2E3/D/ ||  
[M:2/4]D3/A,/ A, z | 
B,2B,3/A,/ | 
B,2B,2 | 
(A,3/F,/) F, z | 
B,2B,3/A,/ | 
B,2B,2 | 
A,3/F,/F,2 ||  
[M:3/4]B,6 | 
A,2F, zB,2 | 
A,3F,A,2 | 
A,6 | 
A,2z4 |]  



